!!!!SEGMENT: pl-kozmzk--mzk-m-159--025_walczynski-franciszek--praeludia-organi-op-5.krn
!!!cenid: 18xx:2768
!!!COM: Walczyński, Franciszek
!!!COM-rismid: pe30021989
!!!CDT: ~1852-1937
!!!CNT: Polish
!!!GTL: Praeludia organi op. 5
!!!OTL: 25.
!!!PDT: 1894
!!!AGN: Secular; Prelude
!!!SMS-siglum: PL-KOZmzk
!!!SMS-shelfmark: mzk/m/159
!!!SMS-shelfwork: 025 G
!!!SMS-variant:
!!!SMS-altvar:
!!!NIFC-rismid: 1001118826
!!!URL-scan: https://repozytorium.nifc.pl/islandora/object/pl-kozmzk%3A2265/datastream/PDF/view
!!!ONB-nifc: UWAGA: numeracja plików zgodna z numeracją źrodłową
!!!OMD: 25.
!!!key:
**kern	**kern	**dynam
*part2	*part1	*part1
*staff2	*staff1	*
*Iorgan	*Iempty	*
*I"[Organo]	*	*
*clefF4	*clefG2	*
*k[f#c#g#d#a#]	*k[f#c#g#d#a#]	*
*c#:	*c#:	*
*M2/4	*M2/4	*
=1	=1	=1
*^	*^	*
(8G#/L	2r	2r	2r	p
8A#/	.	.	.	.
8B/	.	.	.	.
8G#/J	.	.	.	.
=2	=2	=2	=2	=2
2F##X/)	2r	2r	(8d#\L	.
.	.	.	8e\	.
.	.	.	8d#\	.
.	.	.	8c#\J)	.
=3	=3	=3	=3	=3
(8G#/L	2r	2r	(8B\L	.
!LO:N:acc=n#	!	!	!	!
8F#/	.	.	8B#X\	.
8E/	.	.	8c#\	.
8C#/J	.	.	8g#\J	.
=4	=4	=4	=4	=4
8D#/L	2r	2r	2f##X\)	f
8E/	.	.	.	.
8D#/	.	.	.	.
8C#/J)	.	.	.	.
=5	=5	=5	=5	=5
(4BB#X/	2r	2r	(8g#\L	p
!	!	!	!LO:N:acc=n#	!
.	.	.	8f#\	.
8C#/L	.	.	8e\	.
8E/J)	.	.	8c#\J)	.
=6	=6	=6	=6	=6
(8D#/	2r	2r	(4B\	>
4G#/	.	.	.	.
.	.	.	4A#\	.
8F##X/	.	.	.	.
=7	=7	=7	=7	=7
8G#/L	2r	2r	2B\)	.
8D#/	.	.	.	.
8E/	.	.	.	]
8D#/J)	.	.	.	.
=8	=8	=8	=8	=8
!LO:TX:b:i:t=Ped.	!	!	!	!
!LO:N:acc=n#	!	!	!	!
[2F#/	[2GG#\	(8B#X/L	(2G#\	pp
.	.	8c#/	.	.
.	.	8d#/	.	.
.	.	8B#/J	.	.
=9	=9	=9	=9	=9
8F#/L]	2GG#\_	4.c#^/)	4.G#\	.
(8E/	.	.	.	.
8D#/	.	.	.	.
8E/J	.	8c#/	8F##X\)	.
=10	=10	=10	=10	=10
2D#/)	2GG#;\]	2B#X;/	2G#\	> ]
*v	*v	*	*	*
*	*v	*v	*
==	==	==
*-	*-	*-
!!!system-decoration: {(s1,s2)}
!!!EED: Andrzej Borzym
!!!EST: 2021-08-08
!!!AIN: 1 empty 1 organ
!!!ENC: Krzysztof Stępień
!!!END: 2021-07-26
